X: 3004
T: The Second Part of Bread of God.
%R: reel
B: Henry Playford "Apollo's Banquet", London 1687 (5th Edition)
F: https://archive.org/details/apollosbanquetco01rugg
Z: 2017 John Chambers <jc:trillian.mit.edu>
M: C|
L: 1/8
K: G
% - - - - - - - - - -
|:\
g3e (dB)(AG) | A3B E3F | (GF)(GA) (BA)(BG) | B2 d4 c>B |\
c3d (ed)(ef) | gf (g/a/b) e3f | (gf)(ed) (ae)(fg) | f2 d4 :|
|: fg |\
a3f (gf)(ga) | b3e^d3B | (ef)(ga) (ba)(fa) | g2 e4 g>d |\
B3e (d/B/)(A/G/) AB | c>B (c/d/e) A2 d>B | e3d g3d | B2 HG4 |]
% - - - - - - - - - -

%%sep 1 1 500
%%sep 1 1 500

